X:1
T:How Far to the City of Gold?
T:How Far to the City of Gold?
T:Francis Augustus Blackmer, 1915
T:Ella Elizabeth Boyden Miles, 1888
T:Public Domain Courtesy of the Cyber Hymnal™
T:Public Domain Courtesy of the Cyber Hymnal™
C:Francis Augustus Blackmer, 1915
Z:Public Domain
Z:Courtesy of the Cyber Hymnal™
%%score ( 1 2 ) ( 3 4 )
L:1/8
M:6/8
K:F
V:1 treble 
V:2 treble 
V:3 bass 
V:4 bass 
V:1
 z2[Q:1/4=100] c | c2 d/d/ cc[FA] | c3- [Fc]2 [FA] | [CF]2 [CF] (FG)[FA] | [EG]3- [EG]2 [FA] | %5
w: 1.~“How|far to the Ci- ty of|Gold?” The an-|* xious pil- * grim|cries; * “How|
w: 2.~How|far to the Ci- ty of|Gold? The sad-|* dened hearts * would|know, * While|
w: 3.~How|far to the Ci- ty of|Gold? Where sor-|* row ne’er * shall|come— * The|
w: 4.~How|far to the Ci- ty of|Gold? Thy wait-|* ing Church * would|know; * Each|
 [GB]2 [GB] [GB]2 [GB] | [FA]2 [FA] [FA]2 [FA] | [EG]2 [Ec] ([Ec][Fd])[D=B] | [Ec]3- [Ec]2 [Ec] | %9
w: far to jour- ney|ere I see Its|towers be- fore * me|rise?” * Tho’|
w: mourn- ing o’er the|friends they love, In|death’s em- brace * laid|low; * How|
w: prom- ised land of|joy and rest, The|saints’ e- ter- * nal|home? * The|
w: day Thy child- ren|up- ward gaze, Each|day more an- * xious|grow; * Blest|
 [Fc]2 [FA] ([EG][FA])[GB] | [FA]3- [FA]2 [Fc] | [Fc]2 [FA] ([EG][FA])[GB] | [FA]3- [FA]2 c | %13
w: oft- en worn * and|sad, * Op-|pressed with grief * and|care, * Pil-|
w: long ere saints * a-|wake * And|pass those por- * tals|fair? * Hope|
w: jour- ney long * has|been, * But|home will soon * ap-|pear; * Each|
w: Sav- ior, cleave * the|sky, * And|quick- ly, quick- * ly|come; * We|
 F2 A c2 A | G2 B d2 [Bd] | [Ac]2 [FA] [EA]2 [EG] | F3- F2 ||"^Refrain" [Fc] | [Fc]3- [Fc]2 [Fc] | %19
w: grim, press on a|few more steps, Thy|feet are al- most|there. *|||
w: whis- pers in af-|flic- tion’s hour, Weep|not, they’re al- most|there. *|||
w: land- mark past pro-|claims to us We’re|al- most, al- most|there. *|||
w: long to see Thy|bless- èd face, And|dwell with Thee at|home. *|||
 [Fd]3- [Fd]2 [Fd] | [Fc]2 [FA] [Fc]2 [FA] | [EG]3- [EG]2 c | F2 A c2 A | G2 B d2 !fermata![^Gf] | %24
w: |||||
w: |||||
w: |||||
w: |||||
 [Ac]2 [FA] [EA]2 [EG] | F3- !fermata![CF]2 |] %26
w: ||
w: ||
w: ||
w: ||
V:2
 x3 | x6 | F2 F x3 | x3 C2 x | x6 | x6 | x6 | x6 | x6 | x6 | x6 | x6 | x5 c | F2 A c2 A | %14
 G2 B d2 x | x6 | F3- F2 || x | x6 | x6 | x6 | x5 c | F2 A c2 A | ^G2 B d2 x | x6 | F2 D x2 |] %26
V:3
 z x2 | z3 z2 [F,A,] | ([F,A,]2 [F,A,] [F,A,]2) [F,C] | [F,A,]2 [F,A,] (A,B,)[F,C] | %4
w: |~|~ * * ~|~ ~ ~ * ~|
 [C,C]3- [C,C]2 z | z6 | z6 | z6 | z3 z2 [C,B,] | [F,A,]2 [F,C] [C,C]2 [C,C] | %10
w: ~ *||||~|~ ~ ~ ~|
 [F,C]3- [F,C]2 [F,A,] | [F,A,]2 [F,C] [C,C]2 [C,C] | [F,C]3- [F,C]2 C | F,2 A, C2 A, | %14
w: ~ * ~|~ ~ ~ ~|~ * ~|~ ~ ~ ~|
 G,2 B, D2 [B,F] | [CF]2 C [C,C]2 [C,B,] | [F,A,]3- [F,A,]2 || [F,A,] | %18
w: ~ ~ ~ ~|~ ~ ~ ~|~ *|Press|
 ([F,A,]2 [F,A,] [F,A,]2) [F,A,] | ([B,,B,]2 [B,,B,] [B,,B,]2) [B,,B,] | %20
w: on, * * press|on, * * Where|
 [F,A,]2 [F,C] [A,C]2 [F,C] | ([C,C]2 [C,C] [C,C]2) C | F,2 A, C2 A, | G,2 B, D2 !fermata![=B,D] | %24
w: lies thy home so|fair; * * Pil-|grim, press on a|few more steps, Thy|
 [CF]2 C [C,C]2 [C,B,] | (A,2 B, !fermata![F,A,]2) |] %26
w: feet are al- most|there. * *|
V:4
 x3 | x6 | x6 | x3 F,2 x | x6 | x6 | x6 | x6 | x6 | x6 | x6 | x6 | x5 C | F,2 A, C2 A, | %14
 G,2 B, D2 x | x2 C x3 | x5 || x | x6 | x6 | x6 | x5 C | F,2 A, C2 A, | G,2 =B, D2 x | x2 C x3 | %25
 F,3- x2 |] %26

